X: 1
T: Anne Lacey's
C: Liz Carroll
F: http://www.thesession.org/tunes/display/9593 2009-5
M: 4/4
L: 1/8
R: reel
K: Gdor
|: G2GF  GBGA | BGFD CB,DF | G2GF  GBdc | BGFD CB,B,=B, |
|  C2CB, CDFG | BGFD GDF^F | GG,~G,2 G,B,DG |1 BGFD GDF^F :|2 BGFD G4 ||
|: g3f   dcBc | dcBc dg~g2 | ecfc  gcfg | bgfd cBdf |
|  g3f-  fcBc | dcBG FDGD  | C2CB, CDFG | BGFD GDF^F :|
